public/avatar/shoe/120.svg

<svg xmlns:xlink="http://www.w3.org/1999/xlink" height="38.3" width="36.05" xmlns="http://www.w3.org/2000/svg"><use height="17.35" transform="translate(12.95 10.85)" width="17.6" xlink:href="#a"/><defs><g id="a" fill-rule="evenodd"><path d="M3 6.85q-2.3 5.05-4.2 5.7-2.1.75-4.7.8-2.8.05-4.15-.8-1.6-1 .05-5.8 1.45-4.2 3.3-6.4 4.9-5.85 10.5-3.8 5.35 2 1 14.35-.4 0-1.25-2.6L3 6.85" fill="#1956d9" transform="translate(10.85 4)"/><path d="m6 .6.2 2.55q0 4.55-1.3 6.7L4.15 7.1 3.3 5 2.2 6.8q-1.95 4-3.5 4.6-5.4 1.8-8.15.05-.3-.2-.4-.75l-.05-.5q0-1.85 1.4-5.1Q-7.2 2.15-6 .75q4.4-5.25 9.65-3.4Q5.45-2 6 .6" fill="#3fe6ff" transform="translate(10.85 4)"/><path d="M1.3-2.55q2.2.25 1.5 1.7L.6 2.45-1.05 5.7q-.75 1.2-1.5.75-2.5-1.6-4.85-.8-1.6.5 2.2-4.8 2.65-3.8 6.5-3.4" fill="#1956d9" transform="translate(10.85 4)"/><path d="m5.45 4.65-.1 2.85-.5 2.35-.75-2.7-.7-1.7L5 3.35l.45 1.3" fill="#1986d9" transform="translate(10.85 4)"/><path d="M-3.2 7.8q.2 2-2.55 2.2-2.75.2-2.95-1.85-.25-2 2.5-2.2 2.8-.2 3 1.85" fill="#de8300" transform="translate(10.85 4)"/><path d="M-8.25 7.85Q-8.45 6.1-6.2 5.9q2.2-.1 2.4 1.6.1 1.8-2.05 1.9-2.15.25-2.4-1.55" fill="#bd0035" transform="translate(10.85 4)"/><path d="M-7.9 7.45Q-8 6.1-6.35 6q1.7-.1 1.85 1.2.1 1.4-1.55 1.5-1.7.1-1.85-1.25" fill="#e6005b" transform="translate(10.85 4)"/><path d="M-7.35 7.15q-.1-1 .95-1 1.1-.1 1.2.85.1.85-1 .95-1.05 0-1.15-.8" fill="#ff5bca" transform="translate(10.85 4)"/><path d="M-6.8 9.55V9.5l1.05.15q1.8-.3 2.35-1.65-.25 1.5-2.3 1.75l-1.1-.2" fill="#ffcf00" transform="translate(10.85 4)"/><path d="M-5.85 11.4q-3.1.25-3.6-.85-.65-1.3.85-5.1Q-6.75.75-2.75-2-5.65.45-7.8 5.25q-2.1 4.6-.9 4.9l2.4.55q1.2.35.45.7" fill="#d4ffff" transform="translate(10.85 4)"/><path d="M3.65 2.6q1.2-.8.8.75-.75.45-2.2 2.7L.95 8.2q1.4-4.8 2.7-5.6" fill="#3fc5ff" transform="translate(10.85 4)"/><path d="m2.75 5.9.9-1.25q1.25-1.4 2.7-2.1Q4.2 4.4 2.65 7.2l.1-1.3" fill="#1956d9" transform="translate(10.85 4)"/></g></defs></svg>

<?xml version="1.0" encoding="UTF-8" standalone="no"?>
<svg xmlns:xlink="http://www.w3.org/1999/xlink" height="38.3px" width="36.05px" xmlns="http://www.w3.org/2000/svg">
  <g transform="matrix(1.0, 0.0, 0.0, 1.0, 23.8, 14.85)">
    <use height="17.35" transform="matrix(1.0, 0.0, 0.0, 1.0, -10.85, -4.0)" width="17.6" xlink:href="#shape0"/>
  </g>
  <defs>
    <g id="shape0" transform="matrix(1.0, 0.0, 0.0, 1.0, 10.85, 4.0)">
      <path d="M3.0 6.85 Q0.7 11.9 -1.2 12.55 -3.3 13.3 -5.9 13.35 -8.7 13.4 -10.05 12.55 -11.65 11.55 -10.0 6.75 -8.55 2.55 -6.7 0.35 -1.8 -5.5 3.8 -3.45 9.15 -1.45 4.8 10.9 4.4 10.9 3.55 8.3 L3.0 6.85" fill="#1956d9" fill-rule="evenodd" stroke="none"/>
      <path d="M6.0 0.6 L6.2 3.15 Q6.2 7.7 4.9 9.85 L4.15 7.1 3.3 5.0 2.2 6.8 Q0.25 10.8 -1.3 11.4 -6.7 13.2 -9.45 11.45 -9.75 11.25 -9.85 10.7 L-9.9 10.2 Q-9.9 8.35 -8.5 5.1 -7.2 2.15 -6.0 0.75 -1.6 -4.5 3.65 -2.65 5.45 -2.0 6.0 0.6" fill="#3fe6ff" fill-rule="evenodd" stroke="none"/>
      <path d="M1.3 -2.55 Q3.5 -2.3 2.8 -0.85 L0.6 2.45 -1.05 5.7 Q-1.8 6.9 -2.55 6.45 -5.05 4.85 -7.4 5.65 -9.0 6.15 -5.2 0.85 -2.55 -2.95 1.3 -2.55" fill="#1956d9" fill-rule="evenodd" stroke="none"/>
      <path d="M5.45 4.65 L5.35 7.5 4.85 9.85 4.1 7.15 3.4 5.45 5.0 3.35 5.45 4.65" fill="#1986d9" fill-rule="evenodd" stroke="none"/>
      <path d="M-3.2 7.8 Q-3.0 9.8 -5.75 10.0 -8.5 10.2 -8.7 8.15 -8.95 6.15 -6.2 5.95 -3.4 5.75 -3.2 7.8" fill="#de8300" fill-rule="evenodd" stroke="none"/>
      <path d="M-8.25 7.85 Q-8.45 6.1 -6.2 5.9 -4.0 5.8 -3.8 7.5 -3.7 9.3 -5.85 9.4 -8.0 9.65 -8.25 7.85" fill="#bd0035" fill-rule="evenodd" stroke="none"/>
      <path d="M-7.9 7.45 Q-8.0 6.1 -6.35 6.0 -4.65 5.9 -4.5 7.2 -4.4 8.6 -6.05 8.7 -7.75 8.8 -7.9 7.45" fill="#e6005b" fill-rule="evenodd" stroke="none"/>
      <path d="M-7.35 7.15 Q-7.45 6.15 -6.4 6.15 -5.3 6.05 -5.2 7.0 -5.1 7.85 -6.2 7.95 -7.25 7.95 -7.35 7.15" fill="#ff5bca" fill-rule="evenodd" stroke="none"/>
      <path d="M-6.8 9.55 L-6.8 9.5 -5.75 9.65 Q-3.95 9.35 -3.4 8.0 -3.65 9.5 -5.7 9.75 L-6.8 9.55" fill="#ffcf00" fill-rule="evenodd" stroke="none"/>
      <path d="M-5.85 11.4 Q-8.95 11.65 -9.45 10.55 -10.1 9.25 -8.6 5.45 -6.75 0.75 -2.75 -2.0 -5.65 0.45 -7.8 5.25 -9.9 9.85 -8.7 10.15 L-6.3 10.7 Q-5.1 11.05 -5.85 11.4" fill="#d4ffff" fill-rule="evenodd" stroke="none"/>
      <path d="M3.65 2.6 Q4.85 1.8 4.45 3.35 3.7 3.8 2.25 6.05 L0.95 8.2 Q2.35 3.4 3.65 2.6" fill="#3fc5ff" fill-rule="evenodd" stroke="none"/>
      <path d="M2.75 5.9 L3.65 4.65 Q4.9 3.25 6.35 2.55 4.2 4.4 2.65 7.2 L2.75 5.9" fill="#1956d9" fill-rule="evenodd" stroke="none"/>
    </g>
  </defs>
</svg>
